src/assets/images/partner-logo-1.svg

<svg width="80" height="31" viewBox="0 0 80 31" fill="none" xmlns="http://www.w3.org/2000/svg">
<path d="M0 23.158C0.478986 22.7568 0.865089 22.1473 1.15831 21.3297C1.45092 20.5109 1.74414 19.6228 2.03736 18.6662C2.49995 17.0917 2.90548 15.6555 3.25395 14.359C3.6018 13.0613 3.91081 11.7987 4.18157 10.5714C4.45172 9.34465 4.71397 8.06754 4.96834 6.74004C5.2221 5.41134 5.49589 3.94424 5.78911 2.33813C5.86682 1.89139 5.86682 1.45193 5.78911 1.01975C5.71262 0.587569 5.54385 0.247653 5.28159 0H15.5412C15.2936 0.247653 15.1266 0.587569 15.041 1.01975C14.9566 1.45193 14.9536 1.89139 15.0313 2.33813C15.3239 3.94424 15.5977 5.41134 15.8521 6.74004C16.1076 8.06754 16.3705 9.34465 16.6413 10.5714C16.9114 11.7987 17.2198 13.0613 17.5665 14.359C17.9143 15.6555 18.3198 17.0917 18.783 18.6662C19.0775 19.6228 19.3713 20.5109 19.6645 21.3297C19.9571 22.1473 20.3432 22.7568 20.8228 23.158H11.2553C11.5187 22.849 11.7239 22.4709 11.8696 22.0241C12.0165 21.5761 12.0906 21.1124 12.0906 20.6329C12.0906 20.2481 12.0208 19.5306 11.8818 18.4817C11.7421 17.4316 11.557 16.2498 11.3257 14.9369H7.92118C8.32246 15.9099 8.68913 16.8756 9.0212 17.8334C9.35267 18.7901 9.51901 19.7467 9.51901 20.7033C9.51901 21.0578 9.47287 21.4286 9.3806 21.8153C9.28832 22.2007 9.12198 22.5212 8.88279 22.7768C8.64299 23.0311 8.2915 23.158 7.8289 23.158H0ZM7.48165 13.8953H11.1168C10.9013 12.7833 10.6615 11.6755 10.3981 10.5714C10.1358 9.46787 9.85412 8.46087 9.55301 7.55098C9.2519 6.63989 8.94228 5.90968 8.62539 5.36096C8.30971 4.81224 7.98978 4.53787 7.6662 4.53787C7.26432 4.53787 6.94803 4.70783 6.71673 5.04775C6.48483 5.38766 6.31909 5.83198 6.21892 6.3807C6.11815 6.92821 6.06837 7.51092 6.06837 8.12884C6.06837 9.14738 6.21043 10.1356 6.49575 11.0934C6.7823 12.05 7.11073 12.9842 7.48165 13.8953Z" fill="#808991"/>
<mask id="mask0_1_3017" style="mask-type:luminance" maskUnits="userSpaceOnUse" x="22" y="1" width="13" height="5">
<path d="M22.636 1.00537H34.1366V5.46434H22.636V1.00537Z" fill="white"/>
</mask>
<g mask="url(#mask0_1_3017)">
<path d="M33.804 1.92523C33.4889 1.37954 32.8333 1.05359 32.0514 1.05359C30.2708 1.05359 29.0087 2.6779 28.3889 3.70372C27.7678 2.67911 26.5063 1.06391 24.73 1.06391C23.6027 1.06391 22.7855 1.74192 22.7855 2.66151C22.7855 4.29311 24.6274 5.35716 28.3312 5.35716C32.0344 5.35716 33.9965 3.989 33.9965 2.67547C33.9959 2.41386 33.9388 2.15831 33.804 1.92523ZM24.7106 3.55015C24.0877 3.23026 23.8661 2.87092 23.8661 2.64148C23.8661 2.3477 24.2292 2.13464 24.7294 2.13464C25.9351 2.13464 26.8888 3.33224 27.4072 4.16624C26.0182 4.07702 25.1853 3.79416 24.7106 3.55015ZM32.8315 2.91463C32.5176 3.45728 31.4492 4.03271 29.3796 4.16564C29.9017 3.33224 30.8603 2.13525 32.0514 2.13525C32.5122 2.13525 32.775 2.30581 32.8679 2.46606C32.9414 2.59353 32.9292 2.74467 32.8315 2.91463Z" fill="#808991"/>
</g>
<path d="M36.2916 6.94612C36.7542 6.94612 37.2715 6.78466 37.8433 6.46053C38.4146 6.137 38.9931 5.73214 39.5796 5.24654C40.1672 4.75973 40.7233 4.27718 41.2478 3.79947C41.7723 3.32056 42.2349 2.91933 42.6368 2.5952C43.0381 2.26985 43.3319 2.10718 43.5183 2.10718C43.8109 2.10718 43.9578 2.29292 43.9578 2.66318V6.94612H45.949V8.10426H43.9578V17.4617C43.9578 18.0638 43.9651 18.6659 43.9797 19.2681C43.9955 19.8702 44.0805 20.411 44.2347 20.8899C44.3901 21.3676 44.6681 21.7373 45.07 21.9995C45.1623 22.0614 45.2582 22.0918 45.359 22.0918C45.4591 22.0918 45.5636 22.1076 45.6722 22.1379C45.6413 22.4165 45.4907 22.6599 45.2206 22.8687C44.9498 23.0775 44.6293 23.2354 44.2589 23.3422C43.888 23.4502 43.5171 23.5049 43.1468 23.5049C42.0358 23.5049 41.1446 23.3191 40.4732 22.9489C39.8012 22.5786 39.2912 22.0809 38.9433 21.4557C38.5949 20.8311 38.363 20.1324 38.2464 19.3603C38.1311 18.5882 38.074 17.8082 38.074 17.0198V9.58775C38.074 9.35649 38.0625 9.12522 38.04 8.89335C38.0169 8.66209 37.932 8.47271 37.785 8.32521C37.6393 8.17831 37.3807 8.10426 37.0104 8.10426H36.2916V6.94612Z" fill="#808991"/>
<path d="M21.0516 23.1579C21.3606 22.8489 21.5724 22.4823 21.6878 22.058C21.8044 21.6343 21.8626 21.0905 21.8626 20.4264V9.68021C21.8626 9.01677 21.8044 8.47291 21.6878 8.04862C21.5724 7.62312 21.3606 7.25589 21.0516 6.94632H26.7266C27.2201 6.94632 27.5558 7.12053 27.7343 7.46833C27.9122 7.81675 28.0014 8.28352 28.0014 8.86927V9.2626C28.0014 9.54121 28.0166 9.70389 28.0476 9.75062C28.0779 9.79615 28.1168 9.81861 28.1641 9.81861C28.3323 9.81861 28.4974 9.71117 28.6595 9.49569C28.8228 9.27899 29.0122 9.00888 29.2277 8.68475C29.4445 8.3594 29.7219 8.03891 30.0606 7.72327C30.4006 7.40642 30.8213 7.13995 31.3234 6.92447C31.8248 6.70777 32.4392 6.59912 33.1665 6.59912C33.5823 6.59912 34.0139 6.65375 34.4608 6.7618C34.9088 6.87045 35.2876 7.02523 35.5972 7.22554C35.9062 7.42645 36.061 7.68139 36.061 7.99035C36.061 8.12813 35.9256 8.45591 35.6555 8.97367C35.3847 9.49205 35.103 10.0438 34.8104 10.6295C34.4862 11.2626 34.1924 11.8381 33.9289 12.3558C33.6667 12.8724 33.4275 13.1304 33.2126 13.1304C32.9649 13.1304 32.7712 13.0272 32.6322 12.8196C32.4944 12.6108 32.3481 12.3753 32.1927 12.113C32.0385 11.8496 31.8115 11.6141 31.5103 11.4065C31.2092 11.1977 30.78 11.0933 30.2233 11.0933C29.5756 11.0933 29.093 11.2596 28.7761 11.591C28.4604 11.923 28.2521 12.3206 28.152 12.7832C28.0512 13.2463 28.0014 13.6936 28.0014 14.1258V20.4264C28.0014 21.0905 28.0585 21.6343 28.1738 22.058C28.2904 22.4823 28.5029 22.8489 28.8125 23.1579H21.0516Z" fill="#808991"/>
<path d="M46.5282 11.5789C46.5282 10.6065 46.748 9.79918 47.1887 9.1582C47.6288 8.51722 48.2159 8.0122 48.9492 7.64315C49.6826 7.27288 50.4851 7.00641 51.3581 6.84435C52.2305 6.68107 53.1065 6.59912 53.9856 6.59912C55.0055 6.59912 55.9628 6.68107 56.8583 6.84435C57.7531 7.00641 58.5441 7.2225 59.2307 7.49261C59.9186 7.76151 60.4552 8.05833 60.8407 8.38368C61.2274 8.70781 61.4211 9.03923 61.4211 9.37915C61.4211 9.88902 61.3009 10.388 61.0617 10.8748C60.8219 11.3604 60.5323 11.7579 60.1923 12.0669C59.8536 12.3747 59.5452 12.5282 59.2672 12.5282C58.6485 12.5282 58.0615 12.3747 57.5066 12.0669C56.9511 11.7579 56.4102 11.3762 55.8845 10.9209C55.36 10.4644 54.8385 10.0128 54.3207 9.5661C53.804 9.11814 53.2795 8.73938 52.7471 8.42981C52.2141 8.12085 51.655 7.96607 51.0692 7.96607C50.8051 7.96607 50.5264 8.0207 50.2338 8.12874C49.9406 8.23739 49.6972 8.40735 49.5029 8.63862C49.3098 8.87049 49.2139 9.17884 49.2139 9.56367C49.2139 9.93454 49.3681 10.2435 49.6777 10.4912C49.9867 10.7376 50.4074 10.9379 50.9405 11.0933C51.4729 11.2475 52.0636 11.3859 52.7131 11.5085C53.7312 11.6948 54.7535 11.9231 55.7801 12.1932C56.8079 12.4639 57.7422 12.8305 58.5824 13.293C59.4238 13.7562 60.1001 14.3626 60.61 15.1116C61.12 15.8594 61.3749 16.7893 61.3749 17.9013C61.3749 18.9666 61.1394 19.8625 60.6683 20.5891C60.1972 21.3144 59.5986 21.8893 58.8738 22.3129C58.1483 22.7372 57.3876 23.0413 56.5912 23.2259C55.7959 23.4116 55.0747 23.5051 54.4275 23.5051C53.6389 23.5051 52.7933 23.4504 51.8899 23.3424C50.9866 23.2356 50.1373 23.0899 49.3426 22.9054C48.5473 22.7196 47.899 22.4993 47.3975 22.245C46.8955 21.9894 46.6448 21.715 46.6448 21.4219C46.6448 21.1742 46.7134 20.8149 46.8512 20.3439C46.9902 19.8728 47.1717 19.3866 47.3951 18.8846C47.6197 18.3833 47.8638 17.959 48.126 17.6124C48.3883 17.2646 48.6348 17.0904 48.8667 17.0904C49.2224 17.0904 49.6395 17.2452 50.1173 17.5541C50.5962 17.8637 51.1566 18.2188 51.7976 18.62C52.4387 19.0218 53.1757 19.3769 54.0098 19.6859C54.8434 19.9936 55.7928 20.1472 56.8583 20.1472C57.3986 20.1472 57.9158 20.0549 58.41 19.8704C58.9035 19.6847 59.3121 19.4297 59.6363 19.1056C59.9617 18.7821 60.1244 18.4197 60.1244 18.0179C60.1244 17.7399 60.0394 17.5505 59.8694 17.4497C59.6994 17.3496 59.4596 17.2992 59.1506 17.2992C58.7184 17.2992 58.1659 17.3496 57.4945 17.4497C56.8224 17.5505 56.0472 17.6002 55.1682 17.6002C54.226 17.6002 53.2528 17.5001 52.2493 17.2992C51.2452 17.0989 50.3115 16.7626 49.447 16.2916C48.5826 15.8205 47.8796 15.199 47.3393 14.4269C46.7983 13.6548 46.5282 12.7055 46.5282 11.5789Z" fill="#808991"/>
<path d="M63.7371 11.5789C63.4584 10.6368 63.184 9.73788 62.9139 8.88141C62.6431 8.02373 62.2613 7.3785 61.7677 6.94632H69.8734C69.5966 7.5958 69.5268 8.31023 69.6646 9.09022C69.8036 9.86899 69.9888 10.6987 70.2207 11.5789C70.4374 12.3819 70.6614 13.239 70.8933 14.1501C71.1246 15.06 71.3632 15.9553 71.6097 16.8354C71.8574 17.7162 72.1081 18.5192 72.3625 19.244C72.618 19.9693 72.8657 20.5478 73.1055 20.98C73.3447 21.4122 73.5803 21.6283 73.8122 21.6283C74.089 21.6283 74.3543 21.3703 74.6086 20.8537C74.8642 20.336 75.0731 19.6725 75.2352 18.8628C75.3966 18.0519 75.478 17.2142 75.478 16.3498C75.478 15.1601 75.3353 14.2072 75.0506 13.4897C74.7653 12.771 74.4144 12.2114 73.9967 11.8095C73.5803 11.4083 73.1674 11.1 72.7583 10.8845C72.3485 10.6678 72.0006 10.4827 71.7141 10.3285C71.4288 10.1749 71.2867 9.9825 71.2867 9.75063C71.2867 9.38036 71.4482 9.00949 71.7724 8.63862C72.0978 8.26835 72.53 7.92843 73.0691 7.61887C73.6094 7.30991 74.1922 7.06286 74.8175 6.87834C75.444 6.6926 76.0584 6.59912 76.6606 6.59912C77.2774 6.59912 77.7667 6.74237 78.1297 7.02887C78.494 7.31416 78.7611 7.68078 78.9311 8.12874C79.101 8.57549 79.186 9.0538 79.186 9.56367C79.186 10.2132 79.0428 11.0702 78.7562 12.1349C78.4709 13.2002 78.1042 14.3893 77.6562 15.7016C77.2076 17.0127 76.7286 18.3711 76.2186 19.7757C75.7099 21.1809 75.2315 22.5478 74.7835 23.8765C74.4126 24.7713 74.0501 25.6162 73.6956 26.4113C73.3411 27.2059 72.9477 27.9082 72.5154 28.5188C72.0832 29.1289 71.5732 29.6029 70.9856 29.9416C70.3992 30.2815 69.6816 30.4515 68.8317 30.4515C68.3685 30.4515 67.8822 30.3817 67.3723 30.2427C66.8623 30.1049 66.4301 29.9319 66.0755 29.7231C65.721 29.5143 65.5437 29.3018 65.5437 29.087C65.5437 28.8393 65.6051 28.534 65.7283 28.1716C65.8509 27.8086 65.9905 27.3959 66.146 26.9334C66.3305 26.3458 66.5187 25.808 66.7118 25.3212C66.906 24.8356 67.1185 24.5928 67.3504 24.5928C67.5963 24.5928 67.8585 24.6662 68.1372 24.8137C68.4152 24.9606 68.7473 25.1112 69.1328 25.2653C69.5195 25.4189 69.9754 25.496 70.4999 25.496C71.2102 25.496 71.7851 25.3758 72.224 25.1367C72.6642 24.8987 72.989 24.6323 73.1978 24.3379C73.4066 24.0447 73.511 23.8134 73.511 23.6435C73.511 23.428 73.4218 23.2926 73.2439 23.238C73.0655 23.1846 72.8609 23.1579 72.6296 23.1579H68.6471C68.1675 23.1579 67.7693 22.9849 67.4524 22.6383C67.1367 22.2905 66.8702 21.8346 66.6535 21.2713C66.438 20.708 66.2492 20.1059 66.0877 19.4649C65.9256 18.8239 65.7599 18.2182 65.5899 17.6464C65.3889 16.9052 65.1953 16.2454 65.0095 15.6676C64.825 15.0885 64.6319 14.4821 64.4316 13.849C64.2306 13.2166 63.9993 12.4596 63.7371 11.5789Z" fill="#808991"/>
</svg>

<svg xmlns="http://www.w3.org/2000/svg" width="80" height="31" fill="none" viewBox="0 0 80 31"><path fill="#808991" d="M0 23.158q.718-.601 1.158-1.828.44-1.23.88-2.664.693-2.361 1.216-4.307.522-1.947.928-3.788.405-1.839.786-3.831.381-1.993.821-4.402a3.8 3.8 0 0 0 0-1.318Q5.675.372 5.282 0h10.26q-.372.372-.501 1.02a3.6 3.6 0 0 0-.01 1.318q.44 2.409.821 4.402.383 1.992.79 3.831.405 1.842.925 3.788.521 1.946 1.216 4.307.441 1.435.881 2.664.44 1.226 1.159 1.828h-9.568q.396-.464.615-1.134.22-.672.22-1.391 0-.578-.208-2.151a86 86 0 0 0-.556-3.545H7.92q.602 1.46 1.1 2.896a8.7 8.7 0 0 1 .498 2.87q0 .533-.138 1.112a2.1 2.1 0 0 1-.498.962q-.36.381-1.054.381zm7.482-9.263h3.635a80 80 0 0 0-.719-3.324 37 37 0 0 0-.845-3.02q-.451-1.367-.928-2.19-.473-.823-.959-.823-.602 0-.95.51-.347.51-.497 1.333-.15.82-.15 1.748-.001 1.528.427 2.964.43 1.435.986 2.802"/><mask id="a" width="13" height="5" x="22" y="1" maskUnits="userSpaceOnUse" style="mask-type:luminance"><path fill="#fff" d="M22.636 1.005h11.5v4.46h-11.5z"/></mask><g mask="url(#a)"><path fill="#808991" d="M33.804 1.925c-.315-.545-.97-.871-1.753-.871-1.78 0-3.042 1.624-3.662 2.65-.621-1.025-1.883-2.64-3.659-2.64-1.127 0-1.945.678-1.945 1.598 0 1.631 1.842 2.695 5.546 2.695 3.703 0 5.665-1.368 5.665-2.682 0-.261-.057-.517-.192-.75M24.711 3.55c-.623-.32-.845-.68-.845-.909 0-.293.363-.506.863-.506 1.206 0 2.16 1.197 2.678 2.031-1.389-.089-2.222-.372-2.696-.616m8.12-.635c-.313.542-1.382 1.118-3.451 1.25.522-.833 1.48-2.03 2.671-2.03.461 0 .724.17.817.331q.11.193-.037.449"/></g><path fill="#808991" d="M36.292 6.946q.694 0 1.551-.485.857-.486 1.737-1.214.88-.73 1.668-1.448.786-.717 1.389-1.204.602-.488.881-.488.44 0 .44.556v4.283h1.991v1.158h-1.991v9.358q0 .903.022 1.806.023.903.255 1.622.232.716.835 1.11a.5.5 0 0 0 .289.092q.15 0 .313.046-.045.418-.451.73a2.9 2.9 0 0 1-.962.474q-.557.163-1.112.163-1.666 0-2.674-.556-1.008-.555-1.53-1.493a6.2 6.2 0 0 1-.697-2.096 16 16 0 0 1-.172-2.34V9.588q0-.347-.034-.695a.9.9 0 0 0-.255-.568q-.219-.22-.775-.22h-.718zM21.052 23.158a2.43 2.43 0 0 0 .636-1.1q.175-.636.175-1.632V9.68q0-.995-.175-1.631a2.44 2.44 0 0 0-.636-1.103h5.675q.74 0 1.007.522.267.524.267 1.401v.394q0 .416.047.488.045.068.116.068.252 0 .495-.323.246-.325.569-.811.324-.489.833-.962.51-.475 1.262-.799.753-.324 1.843-.325.624 0 1.295.163.672.162 1.136.464.465.3.464.764 0 .207-.405.984-.406.777-.846 1.656-.486.95-.881 1.726-.394.774-.716.774a.66.66 0 0 1-.58-.31 17 17 0 0 1-.44-.707 2.25 2.25 0 0 0-.683-.707q-.45-.312-1.287-.313-.971 0-1.447.498-.474.498-.624 1.192t-.15 1.343v6.3q-.001.997.172 1.632.174.636.639 1.1zM46.528 11.579q0-1.46.66-2.42a4.6 4.6 0 0 1 1.761-1.516 9 9 0 0 1 2.41-.799 14.3 14.3 0 0 1 2.627-.245q1.53 0 2.872.245 1.343.243 2.373.649 1.031.403 1.61.89t.58.996q0 .765-.36 1.496a4 4 0 0 1-.869 1.192q-.507.462-.925.461a3.6 3.6 0 0 1-1.76-.461 9.6 9.6 0 0 1-1.622-1.146q-.787-.685-1.564-1.355a10.4 10.4 0 0 0-1.574-1.136 3.3 3.3 0 0 0-1.678-.464q-.397 0-.835.163a1.7 1.7 0 0 0-.731.51q-.29.347-.29.925 0 .556.465.927.463.37 1.263.602.798.232 1.772.415 1.527.28 3.067.685 1.542.406 2.802 1.1a5.8 5.8 0 0 1 2.028 1.819q.765 1.12.765 2.79 0 1.597-.707 2.687a5.3 5.3 0 0 1-1.794 1.724 8.1 8.1 0 0 1-2.283.913q-1.192.28-2.163.28-1.184-.001-2.538-.164a24 24 0 0 1-2.547-.437q-1.194-.278-1.946-.66-.753-.384-.752-.823 0-.372.206-1.078.209-.706.544-1.46.338-.75.731-1.272.393-.521.74-.522.534 0 1.251.464.72.465 1.68 1.066a12 12 0 0 0 2.213 1.066q1.25.461 2.848.461a4.4 4.4 0 0 0 1.552-.277q.74-.278 1.226-.764.488-.486.488-1.088 0-.418-.255-.568t-.718-.15q-.65 0-1.657.15t-2.326.15q-1.413 0-2.919-.3a9.9 9.9 0 0 1-2.802-1.008 6.1 6.1 0 0 1-2.108-1.865q-.81-1.158-.81-2.848M63.737 11.579a158 158 0 0 0-.823-2.698q-.406-1.286-1.146-1.935h8.105q-.415.975-.208 2.144.208 1.169.556 2.489.324 1.204.672 2.571.347 1.365.717 2.685.37 1.322.752 2.409.384 1.088.744 1.736.358.648.706.648.415 0 .797-.774.383-.777.626-1.991.243-1.217.243-2.513 0-1.785-.427-2.86-.429-1.078-1.054-1.68a5.5 5.5 0 0 0-1.239-.926q-.614-.324-1.044-.556-.427-.23-.427-.577 0-.556.485-1.112.489-.555 1.297-1.02a8.2 8.2 0 0 1 1.748-.74 6.5 6.5 0 0 1 1.844-.28q.924 0 1.469.43.546.428.801 1.1.255.67.255 1.435 0 .974-.43 2.57a56 56 0 0 1-1.1 3.568q-.672 1.967-1.437 4.074a196 196 0 0 0-1.435 4.1q-.557 1.342-1.088 2.535a12.3 12.3 0 0 1-1.18 2.108 4.8 4.8 0 0 1-1.53 1.423q-.88.51-2.154.51-.695 0-1.46-.21a5.3 5.3 0 0 1-1.296-.519q-.532-.314-.532-.636 0-.372.184-.915.185-.544.418-1.239a23 23 0 0 1 .566-1.612q.29-.728.638-.728.37 0 .787.22.417.221.996.452.58.231 1.367.231 1.065 0 1.724-.36.66-.356.974-.798.313-.44.313-.695 0-.323-.267-.405a2.1 2.1 0 0 0-.614-.08h-3.983a1.55 1.55 0 0 1-1.195-.52q-.473-.521-.799-1.367a16 16 0 0 1-.565-1.806 46 46 0 0 0-.498-1.819 45 45 0 0 0-.58-1.978q-.278-.87-.578-1.819-.302-.949-.695-2.27"/></svg>
